X:236
T: Mama niang hao hutu
N: C0373
O: China,Hebei, Xinglong, Nordwesten)
S: IV, 45]
N: sehr verbreitet im Norden und Nordosten. Text und Mel. = original.
N: +++schon einmal vorhanden? +++
R: Xiaodiao, Shidiao, Yinniusi diao. Geming lishi minge]
M: 2/4
L: 1/32
K: F
d2f2d2c2A6c2 | d2f2d2c2A8 |
A4f4d4c4 | A2F4G2A8 |
A2G2A2c2d2f2d2c2 | A4c2A2G2A2F4 |
F2G2A2c2G2A2E4 | D6C2D8 |
F3GF2G2A4A4 | F4A4G2A2E4 | D6C2D8

@@@ Tune index: 6237
